assets/icons/qvision/delete_forever.svg

<svg xmlns="http://www.w3.org/2000/svg" height="24" viewBox="0 0 24 24" width="24"><path d="M0 0h24v24H0z" fill="none"/><path d="M0 0h24v24H0V0z" fill="none"/><path d="M6 19c0 1.1.9 2 2 2h8c1.1 0 2-.9 2-2V7H6v12zm2.46-7.12l1.41-1.41L12 12.59l2.12-2.12 1.41 1.41L13.41 14l2.12 2.12-1.41 1.41L12 15.41l-2.12 2.12-1.41-1.41L10.59 14l-2.13-2.12zM15.5 4l-1-1h-5l-1 1H5v2h14V4z"/></svg>

<svg width="24" height="24" viewBox="0 0 24 24" fill="none" xmlns="http://www.w3.org/2000/svg">
<g clip-path="url(#clip0_147_4082)">
<path d="M6 19C6 20.1 6.9 21 8 21H16C17.1 21 18 20.1 18 19V7H6V19ZM8.46 11.88L9.87 10.47L12 12.59L14.12 10.47L15.53 11.88L13.41 14L15.53 16.12L14.12 17.53L12 15.41L9.88 17.53L8.47 16.12L10.59 14L8.46 11.88ZM15.5 4L14.5 3H9.5L8.5 4H5V6H19V4H15.5Z" fill="#323232"/>
</g>
<defs>
<clipPath id="clip0_147_4082">
<rect width="24" height="24" fill="white"/>
</clipPath>
</defs>
</svg>
